images/svg/work-preview-xaf.svg

<svg fill="none" height="460" viewBox="0 0 640 460" width="640" xmlns="http://www.w3.org/2000/svg"><g fill="#fff"><path d="m431.214 223.272 38.786-15.831-11.873-40.37-41.161 7.916c-6.333-11.082-14.248-21.372-23.747-29.288l15.831-39.578-34.037-18.2054-24.538 34.8284c-11.873-3.166-24.538-4.749-37.203-3.958l-15.831-38.786-40.37 11.8733 7.916 41.1607c-11.082 6.333-21.372 14.248-29.288 23.747l-39.578-15.831-18.205 33.245 34.828 24.538c-3.166 11.874-4.749 24.539-3.958 37.204l-38.786 15.831 11.873 40.369 41.161-7.915c6.333 11.081 14.248 21.372 23.747 29.287l-15.831 39.578 33.245 18.206 24.539-34.829c11.873 3.167 24.538 4.75 37.203 3.958l15.831 38.786 40.369-11.873-7.915-41.161c11.081-6.332 21.372-14.248 29.287-23.747l39.578 15.832 18.206-33.246-34.829-24.538c3.958-11.873 4.75-24.538 4.75-37.203zm-16.623 6.332c0 52.243-42.744 94.987-94.987 94.987s-94.987-42.744-94.987-94.987 42.744-94.987 94.987-94.987 94.987 42.744 94.987 94.987z"/><path d="m319.609 150.449c-43.536 0-79.156 35.62-79.156 79.156 0 43.535 35.62 79.156 79.156 79.156 43.535 0 79.155-35.621 79.155-79.156 0-43.536-35.62-79.156-79.155-79.156zm-15.831 47.494c13.456 0 23.746 5.541 23.746 11.873s-10.29 11.873-23.746 11.873c-13.457 0-23.747-5.541-23.747-11.873s11.082-11.873 23.747-11.873zm0 63.324c-13.457 0-23.747-5.541-23.747-11.873 0-6.333 10.29-11.874 23.747-11.874 13.456 0 23.746 5.541 23.746 11.874 0 6.332-10.29 11.873-23.746 11.873zm34.037 22.955c-4.75 2.375-10.291-1.583-10.291-7.124 0-3.166 2.375-6.332 5.541-7.915 18.998-6.333 26.122-24.539 26.122-39.578 0-15.04-7.916-34.037-26.122-39.578-3.166-.792-5.541-3.958-5.541-7.916 0-5.54 5.541-9.498 10.291-7.124 21.372 7.916 37.203 30.08 37.203 54.618 0 25.33-15.831 46.702-37.203 54.617z"/></g></svg>

<svg width="640" height="460" viewBox="0 0 640 460" fill="none" xmlns="http://www.w3.org/2000/svg">
<path d="M431.214 223.272L470 207.441L458.127 167.071L416.966 174.987C410.633 163.905 402.718 153.615 393.219 145.699L409.05 106.121L375.013 87.9156L350.475 122.744C338.602 119.578 325.937 117.995 313.272 118.786L297.441 80L257.071 91.8733L264.987 133.034C253.905 139.367 243.615 147.282 235.699 156.781L196.121 140.95L177.916 174.195L212.744 198.733C209.578 210.607 207.995 223.272 208.786 235.937L170 251.768L181.873 292.137L223.034 284.222C229.367 295.303 237.282 305.594 246.781 313.509L230.95 353.087L264.195 371.293L288.734 336.464C300.607 339.631 313.272 341.214 325.937 340.422L341.768 379.208L382.137 367.335L374.222 326.174C385.303 319.842 395.594 311.926 403.509 302.427L443.087 318.259L461.293 285.013L426.464 260.475C430.422 248.602 431.214 235.937 431.214 223.272ZM414.591 229.604C414.591 281.847 371.847 324.591 319.604 324.591C267.361 324.591 224.617 281.847 224.617 229.604C224.617 177.361 267.361 134.617 319.604 134.617C371.847 134.617 414.591 177.361 414.591 229.604Z" fill="white"/>
<path d="M319.609 150.449C276.073 150.449 240.453 186.069 240.453 229.605C240.453 273.14 276.073 308.761 319.609 308.761C363.144 308.761 398.764 273.14 398.764 229.605C398.764 186.069 363.144 150.449 319.609 150.449ZM303.778 197.943C317.234 197.943 327.524 203.484 327.524 209.816C327.524 216.148 317.234 221.689 303.778 221.689C290.321 221.689 280.031 216.148 280.031 209.816C280.031 203.484 291.113 197.943 303.778 197.943ZM303.778 261.267C290.321 261.267 280.031 255.726 280.031 249.394C280.031 243.061 290.321 237.52 303.778 237.52C317.234 237.52 327.524 243.061 327.524 249.394C327.524 255.726 317.234 261.267 303.778 261.267ZM337.815 284.222C333.065 286.597 327.524 282.639 327.524 277.098C327.524 273.932 329.899 270.766 333.065 269.183C352.063 262.85 359.187 244.644 359.187 229.605C359.187 214.565 351.271 195.568 333.065 190.027C329.899 189.235 327.524 186.069 327.524 182.111C327.524 176.571 333.065 172.613 337.815 174.987C359.187 182.903 375.018 205.067 375.018 229.605C375.018 254.935 359.187 276.307 337.815 284.222Z" fill="white"/>
</svg>
